X: 1
T: Wedding in Crown Heights
M: 4/4
L: 1/8
R: freylach, bulgar
S: printed MS of unknown origin, "15" handwritten at the top right
Z: 2010 John Chambers <jc:trillian.mit.edu>
K: Dphr
"A"|: "D"DBAG ^FFFz | ^FGFE DDDz | ^FF2F "Gm"GG2B |1 "Cm"AG^FG "D"A2z2 :|2 "Cm"AG^FE "D"D2zD ||
"B"|: "G"G2A2 =BAGD | G2A2 =BAGD | "Gm"G2A2 B2d2 |1 "A"^c2B2 A3D :|2 "A"^c2B2 A3z ||
"C"|: "Cm"Ac2c c2c2 | cBBA AGG^F | "D"^FA2A A2A2 | AGG^F FEED | "D"^FF2F "Gm"GG2B \
   |1 "Cm"AG^FG "D"A2z :|2 "Cm"AG^FE "D"D2z2 ||
"D"|:"D"^FF2F "Gm"GG2B | "Cm"AG^FG "D"A3z | "D"^FF2F "Gm"GG2B | "C"AG^FE "D"D2 z2 :|
